img/green/bear.svg

<svg width="114" height="114" viewBox="0 0 114 114" fill="none" xmlns="http://www.w3.org/2000/svg">
<rect width="114" height="114" fill="white"/>
<path d="M54.7259 24.0679C53.4673 24.0901 52.1412 24.5119 51.1972 25.3111C49.5115 26.754 47.8258 28.2413 47.8708 30.1948C47.9157 32.1483 49.0395 33.2582 49.0395 33.2582C49.0395 33.2582 49.8037 33.8354 49.0395 34.4126C48.2753 34.9897 39.3074 40.6282 39.7794 52.2604C39.7794 52.2604 40.0042 55.2794 39.667 58.5204C39.4198 60.8291 40.2289 63.6484 40.7234 65.0469C40.7459 65.0691 40.9707 65.6463 40.4537 65.2911C38.0263 63.7816 36.0259 61.5395 34.3627 58.7202C32.8344 55.9898 31.9578 52.8154 31.9578 49.4411C31.9578 42.2931 35.8911 36.0553 41.6899 32.8364C33.7334 35.0341 27.8672 42.3819 27.8672 51.1283C27.8672 51.7942 27.8897 52.4602 27.9571 53.1039C28.0245 54.6135 28.1819 57.0109 28.6089 57.9655C29.2607 59.4084 29.1933 62.5162 29.1933 63.0268C29.1933 63.5374 29.3731 80.586 39.5771 80.5416C39.5771 80.5416 44.4319 80.6526 44.4769 78.6991C44.4994 76.9676 44.0049 76.7901 43.5554 75.7911C43.1283 74.8366 42.7912 74.7922 43.0384 71.7287C43.0384 71.7287 43.0609 71.1072 43.2857 71.1072C43.5104 71.1072 46.3649 79.4539 50.0285 83.8271C53.692 88.2002 57.3781 88.6664 60.1651 88.6664C60.1651 88.6664 65.402 88.6664 65.402 86.0691C65.402 83.4719 63.0195 84.5152 63.0195 76.2795C63.0195 68.0437 67.0427 68.4433 67.5147 70.4634C67.9867 72.4835 68.3913 74.0818 67.5821 79.4983C66.7505 84.9148 68.9757 85.5586 71.021 85.5586C73.0663 85.5586 83.7873 85.8916 85.6528 55.6124C85.6528 55.6124 85.8775 50.7287 84.2593 46.5109C84.2593 46.5109 84.956 54.5691 79.8765 58.8978C74.7969 63.2266 71.8975 62.5828 71.8975 62.5828C71.8975 62.5828 69.4477 62.4052 68.4587 63.6262C67.4698 64.8249 67.6496 65.6907 65.5368 65.0691C63.4466 64.4253 63.4241 63.9148 61.5136 64.1589C59.6032 64.4031 58.4344 64.6251 57.6703 63.0712C56.9061 61.5173 56.0745 60.5183 54.5012 60.2298C52.9278 59.9412 46.0053 56.7001 46.1851 47.532C46.3649 39.0077 50.2757 36.0775 50.2757 36.0775C50.2757 36.0775 50.9275 35.3893 51.5568 35.6779C52.2086 35.9665 53.2425 36.0331 54.4787 34.9231C55.7149 33.8132 56.524 32.9696 58.7266 32.2149C58.7266 32.2149 60.255 31.9929 60.1876 30.4834C60.1201 28.9517 58.884 25.6662 57.3106 24.6895C56.6139 24.2677 55.6924 24.0457 54.7259 24.0679ZM60.0078 65.2911C60.3674 65.2689 60.8618 65.5131 61.4013 65.7129C62.1879 66.0014 63.9635 65.8682 64.6603 65.8238C65.357 65.7795 65.829 66.068 65.2671 66.734C64.5029 67.6441 63.5814 67.5998 62.4127 67.6885C61.2439 67.7773 60.0078 66.6452 60.0078 66.6452C59.9403 66.5342 59.3784 65.9348 59.6481 65.5131C59.7156 65.3577 59.8504 65.2911 60.0078 65.2911ZM54.0516 46.9105C55.4002 45.2678 56.1419 45.068 57.3106 45.068C58.4794 45.068 60.0977 45.8005 60.5697 47.5986C61.0866 49.5521 61.3563 49.8629 59.4683 52.0384C58.1198 53.6145 55.6699 57.0331 53.22 54.8576C50.7926 52.6822 51.6917 49.7741 54.0516 46.9105ZM75.9432 49.9517C75.1565 47.9982 74.5047 47.5764 73.3809 47.2213C72.2796 46.8661 70.504 47.1103 69.4926 48.6642C68.3913 50.3735 68.0092 50.5289 69.1555 53.1927C69.9646 55.0796 71.2907 59.142 74.3024 57.7657C77.3142 56.4338 77.3367 53.3925 75.9432 49.9517ZM63.042 62.8048C63.6713 61.8503 65.1098 61.5173 65.9639 61.4951C67.0652 61.4507 67.0427 60.5183 67.0427 60.5183C67.0427 60.5183 67.1102 59.5638 63.1319 59.1864C59.1537 58.809 59.0413 59.808 59.0413 59.808C59.0413 59.808 58.8615 60.7403 59.9403 60.9623C60.7719 61.1399 62.1205 61.7393 62.57 62.7826C62.6599 63.049 62.9072 63.049 63.042 62.8048ZM81.8319 39.1853C81.1576 39.4073 80.1237 39.3407 79.0224 38.1198C77.9211 36.8988 77.2243 35.9443 75.0891 34.9675C75.0891 34.9675 73.6057 34.568 73.8305 33.0806C74.0552 31.5933 75.651 28.4633 77.3142 27.6641C78.9774 26.865 81.8094 27.3533 83.3378 28.9739C84.8661 30.5944 86.372 32.2593 86.1023 34.2128C85.8326 36.1441 84.5964 37.1208 84.5964 37.1208H84.6189C84.012 37.8756 81.8319 39.1853 81.8319 39.1853Z" fill="black"/>
</svg>

<svg width="114" height="114" fill="none" xmlns="http://www.w3.org/2000/svg"><path fill="#fff" d="M0 0h114v114H0z"/><path d="M54.726 24.068c-1.259.022-2.585.444-3.529 1.243-1.686 1.443-3.371 2.93-3.326 4.884.045 1.953 1.168 3.063 1.168 3.063s.765.577 0 1.155c-.764.577-9.732 6.215-9.26 17.847 0 0 .225 3.02-.112 6.26-.247 2.31.562 5.128 1.056 6.527.023.022.248.6-.27.244-2.427-1.51-4.427-3.752-6.09-6.57a18.966 18.966 0 0 1-2.405-9.28 18.971 18.971 0 0 1 9.732-16.605c-7.957 2.198-13.823 9.546-13.823 18.292 0 .666.023 1.332.09 1.976.067 1.51.225 3.907.652 4.861.652 1.443.584 4.551.584 5.062 0 .51.18 17.559 10.384 17.515 0 0 4.855.11 4.9-1.843.022-1.731-.472-1.909-.922-2.908-.427-.954-.764-.999-.517-4.062 0 0 .023-.622.248-.622.224 0 3.079 8.347 6.742 12.72 3.664 4.373 7.35 4.84 10.137 4.84 0 0 5.237 0 5.237-2.598 0-2.597-2.383-1.554-2.383-9.79 0-8.235 4.024-7.836 4.496-5.816.472 2.02.876 3.619.067 9.035-.831 5.417 1.394 6.06 3.439 6.06s12.766.334 14.632-29.946c0 0 .224-4.883-1.394-9.101 0 0 .697 8.058-4.383 12.387-5.08 4.329-7.979 3.685-7.979 3.685s-2.45-.178-3.438 1.043c-.99 1.199-.81 2.065-2.922 1.443-2.09-.644-2.113-1.154-4.023-.91-1.91.244-3.08.466-3.844-1.088-.764-1.554-1.596-2.553-3.169-2.841-1.573-.289-8.496-3.53-8.316-12.698.18-8.524 4.09-11.454 4.09-11.454s.653-.689 1.282-.4c.652.289 1.685.355 2.922-.755 1.236-1.11 2.045-1.953 4.248-2.708 0 0 1.528-.222 1.46-1.732-.067-1.531-1.303-4.817-2.876-5.794-.697-.421-1.619-.643-2.585-.621zm5.282 41.223c.36-.022.854.222 1.393.422.787.288 2.563.155 3.26.11.696-.043 1.168.245.606.911-.764.91-1.686.866-2.854.955-1.17.088-2.405-1.044-2.405-1.044-.068-.11-.63-.71-.36-1.132.068-.155.202-.222.36-.222zm-5.956-18.38c1.348-1.643 2.09-1.843 3.259-1.843 1.168 0 2.787.733 3.259 2.53.517 1.954.786 2.265-1.102 4.44-1.348 1.577-3.798 4.995-6.248 2.82-2.427-2.176-1.528-5.084.832-7.947zm21.891 3.04c-.787-1.953-1.438-2.375-2.562-2.73-1.101-.355-2.877-.11-3.888 1.443-1.102 1.71-1.484 1.865-.337 4.529.809 1.887 2.135 5.949 5.146 4.573 3.012-1.332 3.035-4.373 1.641-7.814zM63.042 62.806c.63-.955 2.068-1.288 2.922-1.31 1.101-.044 1.079-.977 1.079-.977s.067-.954-3.911-1.332c-3.978-.377-4.09.622-4.09.622s-.18.932.898 1.154c.832.178 2.18.777 2.63 1.82.09.267.337.267.472.023zm18.79-23.62c-.674.222-1.708.156-2.81-1.065-1.1-1.221-1.798-2.176-3.933-3.152 0 0-1.483-.4-1.258-1.887.224-1.488 1.82-4.618 3.483-5.417 1.663-.799 4.495-.31 6.024 1.31 1.528 1.62 3.034 3.285 2.764 5.239-.27 1.931-1.506 2.908-1.506 2.908h.023c-.607.755-2.787 2.064-2.787 2.064z" fill="#000"/></svg>
